X:1
T: The House of Invereruan
C:Alexander Walker
R:Strathspey
Q: 128
K:Bm
M:4/4
L:1/16
|:F3B d3A B4 B3f|e3A c3A a3A c3A|FB3 B3c d3e f3b|a3f e3c BBB2 B4|
F3B d3A B4 B3f|e3A c3A a3A c3A|FB3 B3c d3e f3b|a3f e3c BBB2 B2c2|
B3b d3b c3a e3c|B3b d3b B3b f3^g|a3f e3d cA3 A3c|d3f e3c BBB2 B3F|
B3b d3b c3a e3c|B3b d3b f3^g a3c|d2fd c2ec A3B c3e|f3d e3c BBB2 B4:|
